launcher/android/assets/skins/day/svg/mapMyParking.svg

<svg enable-background="new 0 0 258.00 258.00" height="258" viewBox="0 0 258 258" width="258" xmlns="http://www.w3.org/2000/svg" xmlns:xlink="http://www.w3.org/1999/xlink"><linearGradient id="a" gradientTransform="matrix(0 -1 1 0 -.581108 1.581108)" gradientUnits="objectBoundingBox" x1=".5" x2="1.66222" y1="1.08111" y2="1.08111"><stop offset="0" stop-color="#abc4ab"/><stop offset=".771552" stop-color="#d5e1d5"/><stop offset="1" stop-color="#fff"/></linearGradient><path d="m44 3.99988h170c22.091 0 40 17.90872 40 40.00002v170.0001c0 22.091-17.909 40-40 40h-170c-22.0914 0-40-17.909-40-40v-170.0001c0-22.0913 17.9086-40.00002 40-40.00002z" fill="url(#a)" stroke="#000" stroke-linecap="square" stroke-linejoin="bevel" stroke-width="8"/><path d="m173.753 42.5341-90.6325-.0218c-9.4168-.3342-17.5272 2.7344-22.5313 13.7647l-18.06 45.599c-13.1626 3.657-18.8913 13.296-19.1958 21.202v59.705h17.3565v20.091c-.8409 19.147 30.2864 19.888 30.9803-.199l.3692-19.722h112.5876l.37 19.722c.694 20.087 31.848 19.346 31.007.199v-20.091h17.329v-59.705c-.304-7.906-6.033-17.545-19.194-21.202l-18.061-45.599c-5.004-11.0303-13.115-14.0989-22.532-13.7647m-88.3641 15.8184c.7893-.0061 1.6196.021 2.4606.0552l81.6655.2563c7.475-.1741 10.643 0 13.822 7.126l13.002 35.3388-135.4571-.171 12.8616-34.3988c2.0063-6.8869 6.1355-8.175 11.6454-8.2065zm-28.4375 60.4753c8.0973 0 14.673 6.6 14.673 14.762 0 8.158-6.5757 14.789-14.673 14.789-8.0938 0-14.6703-6.631-14.6703-14.789 0-8.162 6.5765-14.762 14.6703-14.762zm143.9956 0c8.097 0 14.642 6.6 14.642 14.762 0 8.158-6.545 14.789-14.642 14.789-8.094 0-14.671-6.631-14.671-14.789 0-8.162 6.577-14.762 14.671-14.762zm-10.077-19.4458c-.072-.5468-.17-.9773-.287-1.4287-.758-2.9907-1.773-4.8056-3.947-7.0307-2.119-2.1639-4.498-3.4895-7.284-4.0845-2.731-.5845-28.089-.5879-30.83 0-5.206 1.1113-9.666 5.4897-11.043 10.8247-.059.2222-.12.8479-.165 1.658m26.777-38.5682c-4.174.0061-8.34 2.1936-10.49 6.5931-.858 1.7605-.923 2.0441-.923 4.9973 0 2.9223.058 3.2636.882 5.0171 1.49 3.1718 3.61 5.0583 7.013 6.2861 1.063.3823 2.055.5022 3.993.4338 2.307-.0822 2.782-.2116 4.689-1.1618 2.454-1.2242 4.256-3.0389 5.469-5.5371.724-1.4876.783-1.8838.783-4.8912 0-3.1308-.038-3.3469-.927-5.1652-2.143-4.3916-6.316-6.5791-10.489-6.5721z" fill="#006432" fill-rule="evenodd" stroke="#000" stroke-linejoin="round" stroke-width="3"/></svg>

﻿<?xml version="1.0" encoding="utf-8"?>
<!DOCTYPE svg PUBLIC "-//W3C//DTD SVG 1.1//EN" "http://www.w3.org/Graphics/SVG/1.1/DTD/svg11.dtd">
<svg xmlns="http://www.w3.org/2000/svg" xmlns:xlink="http://www.w3.org/1999/xlink" version="1.1" baseProfile="full" width="258" height="258" viewBox="0 0 258.00 258.00" enable-background="new 0 0 258.00 258.00" xml:space="preserve">
	<linearGradient id="SVGID_Fill1_" gradientUnits="objectBoundingBox" x1="0.5" y1="1.08111" x2="1.66222" y2="1.08111" gradientTransform="rotate(-90.000000 0.500000 1.081108)">
		<stop offset="0" stop-color="#ABC4AB" stop-opacity="1"/>
		<stop offset="0.771552" stop-color="#D5E1D5" stop-opacity="1"/>
		<stop offset="1" stop-color="#FFFFFF" stop-opacity="1"/>
	</linearGradient>
	<path fill="url(#SVGID_Fill1_)" stroke-width="8" stroke-linecap="square" stroke-linejoin="bevel" stroke="#000000" stroke-opacity="1" d="M 44,3.99988L 214,3.99988C 236.091,3.99988 254,21.9086 254,43.9999L 254,214C 254,236.091 236.091,254 214,254L 44,254C 21.9086,254 4,236.091 4,214L 4,43.9999C 4,21.9086 21.9086,3.99988 44,3.99988 Z "/>
	<path fill="#006432" fill-opacity="1" fill-rule="evenodd" stroke-width="3" stroke-linejoin="round" stroke="#000000" stroke-opacity="1" d="M 173.753,42.5341L 83.1205,42.5123C 73.7037,42.1781 65.5933,45.2467 60.5892,56.277L 42.5292,101.876C 29.3666,105.533 23.6379,115.172 23.3334,123.078L 23.3334,182.783L 40.6899,182.783L 40.6899,202.874C 39.849,222.021 70.9763,222.762 71.6702,202.675L 72.0394,182.953L 184.627,182.953L 184.997,202.675C 185.691,222.762 216.845,222.021 216.004,202.874L 216.004,182.783L 233.333,182.783L 233.333,123.078C 233.029,115.172 227.3,105.533 214.139,101.876L 196.078,56.277C 191.074,45.2467 182.963,42.1781 173.546,42.5123M 85.1819,58.3307C 85.9712,58.3246 86.8015,58.3517 87.6425,58.3859L 169.308,58.6422C 176.783,58.4681 179.951,58.6422 183.13,65.7682L 196.132,101.107L 60.6749,100.936L 73.5365,66.5372C 75.5428,59.6503 79.672,58.3622 85.1819,58.3307 Z M 56.7444,118.806C 64.8417,118.806 71.4174,125.406 71.4174,133.568C 71.4174,141.726 64.8417,148.357 56.7444,148.357C 48.6506,148.357 42.0741,141.726 42.0741,133.568C 42.0741,125.406 48.6506,118.806 56.7444,118.806 Z M 200.74,118.806C 208.837,118.806 215.382,125.406 215.382,133.568C 215.382,141.726 208.837,148.357 200.74,148.357C 192.646,148.357 186.069,141.726 186.069,133.568C 186.069,125.406 192.646,118.806 200.74,118.806 Z M 190.663,99.3602C 190.591,98.8134 190.493,98.3829 190.376,97.9315C 189.618,94.9408 188.603,93.1259 186.429,90.9008C 184.31,88.7369 181.931,87.4113 179.145,86.8163C 176.414,86.2318 151.056,86.2284 148.315,86.8163C 143.109,87.9276 138.649,92.306 137.272,97.641C 137.213,97.8632 137.152,98.4889 137.107,99.299M 163.884,60.7308C 159.71,60.7369 155.544,62.9244 153.394,67.3239C 152.536,69.0844 152.471,69.368 152.471,72.3212C 152.471,75.2435 152.529,75.5848 153.353,77.3383C 154.843,80.5101 156.963,82.3966 160.366,83.6244C 161.429,84.0067 162.421,84.1266 164.359,84.0582C 166.666,83.976 167.141,83.8466 169.048,82.8964C 171.502,81.6722 173.304,79.8575 174.517,77.3593C 175.241,75.8717 175.3,75.4755 175.3,72.4681C 175.3,69.3373 175.262,69.1212 174.373,67.3029C 172.23,62.9113 168.057,60.7238 163.884,60.7308 Z "/>
</svg>
